X:22
T:Glountane School 1862
R:reel
S:Sliabh Notes-Gleanntan
Z:Transcribed by Dave Marshall
M:C|
K:D
|: D2FA BAFA | d2fd edBc | ~d3A ~B2AF | GBAG FDEF |
D2FA BAFA | d2fd edBc | ~d3A ~B2AF | GBAG FDD2 :|
|: d2fd adfa | bfaf edBc | defg a2bf | afed Bee2 |
d2fd adfa | bfaf edBc | defg a2bf | afef d4 :|
